server/assets/illustrations/accessories/glasses/sunglasses-aviator-green-[removes-eyes][w-1].svg

<svg fill="none" height="4000" viewBox="0 0 4000 4000" width="4000" xmlns="http://www.w3.org/2000/svg"><g clip-rule="evenodd" fill="#333" fill-rule="evenodd"><path d="m2231.56 1562.88c-153.76 24.26-309.16 22.65-463.02.01-12.76-1.87-9.84-21.66 2.92-19.78 151.85 22.34 305.22 23.96 456.98.01 12.74-2.01 15.86 17.75 3.12 19.76z"/><path d="m1923 1647.3c48.59-19.25 105.41-19.25 154.01 0 2.99-7.3 4.49-11.3 7.36-18.6-53.29-21.1-115.45-21.1-168.74 0 2.37 6.3 4.37 11.3 7.37 18.6z"/><path d="m2637.67 1699.28c108.16-25.93 247.69-6.77 338.41 62.78 10.24 7.85-1.93 23.72-12.16 15.88-85.06-65.21-218.1-84.02-321.59-59.22-12.54 3.01-17.2-16.44-4.66-19.44z"/><path d="m1362.33 1699.28c-108.16-25.93-247.69-6.77-338.41 62.78-10.24 7.85 1.93 23.72 12.16 15.88 85.06-65.21 218.1-84.02 321.59-59.22 12.54 3.01 17.2-16.44 4.66-19.44z"/></g><path d="m2029 1718.81c.79 90.62 51.37 202.08 124.48 290.81 73.04 88.64 169.8 156.04 264 156.38 93.95.34 160.15-45.94 202.48-111.78 42.2-65.65 60.73-150.74 60.04-228.89-.61-70.09-15.75-122.75-40.49-162.21-24.75-39.48-58.89-65.39-96.88-82.32-73.76-32.88-162.51-32.07-226.36-31.49-1.66.01-3.31.03-4.93.04l.04 5-.04-5c-106.58.93-177.27 23.04-221.35 55.2-44.25 32.29-61.34 74.46-60.99 114.26zm0 0 5-.04z" fill="#92ff92" stroke="#333" stroke-miterlimit="10" stroke-width="10"/><path d="m2402.5 2093c195.79.7 273.65-214.69 254.86-380.83 10.9 31.21 17.25 68.54 17.64 113.2 1.36 154.89-73.52 336.29-257.5 335.63-174.33-.63-361.22-237.17-381.66-413.54 51.72 163.54 214.01 344.99 366.66 345.54z" fill="#000" fill-opacity=".1"/><path d="m1970.99 1718.81c-.78 90.62-51.36 202.08-124.48 290.81-73.04 88.64-169.79 156.04-264 156.38-93.94.34-160.15-45.94-202.47-111.78-42.2-65.65-60.73-150.74-60.04-228.89.61-70.09 15.75-122.75 40.48-162.21 24.76-39.48 58.9-65.39 96.89-82.32 73.75-32.88 162.51-32.07 226.36-31.49 1.66.01 3.3.03 4.93.04l-.04 5 .04-5c106.58.93 177.26 23.04 221.34 55.2 44.25 32.29 61.34 74.46 60.99 114.26zm0 0-5-.04z" fill="#92ff92" stroke="#333" stroke-miterlimit="10" stroke-width="10"/><path d="m1597.49 2093c-195.79.7-273.64-214.69-254.85-380.83-10.91 31.21-17.25 68.54-17.65 113.2-1.36 154.89 73.52 336.29 257.5 335.63 174.33-.63 361.22-237.17 381.67-413.54-51.72 163.54-214.01 344.99-366.67 345.54z" fill="#000" fill-opacity=".1"/></svg>

<svg width="4000" height="4000" viewBox="0 0 4000 4000" fill="none" xmlns="http://www.w3.org/2000/svg">
<path fill-rule="evenodd" clip-rule="evenodd" d="M2231.56 1562.88C2077.8 1587.14 1922.4 1585.53 1768.54 1562.89C1755.78 1561.02 1758.7 1541.23 1771.46 1543.11C1923.31 1565.45 2076.68 1567.07 2228.44 1543.12C2241.18 1541.11 2244.3 1560.87 2231.56 1562.88Z" fill="#333333"/>
<path fill-rule="evenodd" clip-rule="evenodd" d="M1923 1647.3C1971.59 1628.05 2028.41 1628.05 2077.01 1647.3C2080 1640 2081.5 1636 2084.37 1628.7C2031.08 1607.6 1968.92 1607.6 1915.63 1628.7C1918 1635 1920 1640 1923 1647.3Z" fill="#333333"/>
<path fill-rule="evenodd" clip-rule="evenodd" d="M2637.67 1699.28C2745.83 1673.35 2885.36 1692.51 2976.08 1762.06C2986.32 1769.91 2974.15 1785.78 2963.92 1777.94C2878.86 1712.73 2745.82 1693.92 2642.33 1718.72C2629.79 1721.73 2625.13 1702.28 2637.67 1699.28Z" fill="#333333"/>
<path fill-rule="evenodd" clip-rule="evenodd" d="M1362.33 1699.28C1254.17 1673.35 1114.64 1692.51 1023.92 1762.06C1013.68 1769.91 1025.85 1785.78 1036.08 1777.94C1121.14 1712.73 1254.18 1693.92 1357.67 1718.72C1370.21 1721.73 1374.87 1702.28 1362.33 1699.28Z" fill="#333333"/>
<path d="M2029 1718.81C2029.79 1809.43 2080.37 1920.89 2153.48 2009.62C2226.52 2098.26 2323.28 2165.66 2417.48 2166C2511.43 2166.34 2577.63 2120.06 2619.96 2054.22C2662.16 1988.57 2680.69 1903.48 2680 1825.33C2679.39 1755.24 2664.25 1702.58 2639.51 1663.12C2614.76 1623.64 2580.62 1597.73 2542.63 1580.8C2468.87 1547.92 2380.12 1548.73 2316.27 1549.31C2314.61 1549.32 2312.96 1549.34 2311.34 1549.35L2311.38 1554.35L2311.34 1549.35C2204.76 1550.28 2134.07 1572.39 2089.99 1604.55C2045.74 1636.84 2028.65 1679.01 2029 1718.81ZM2029 1718.81L2034 1718.77L2029 1718.81Z" fill="#92FF92" stroke="#333333" stroke-width="10" stroke-miterlimit="10"/>
<path d="M2402.5 2093C2598.29 2093.7 2676.15 1878.31 2657.36 1712.17C2668.26 1743.38 2674.61 1780.71 2675 1825.37C2676.36 1980.26 2601.48 2161.66 2417.5 2161C2243.17 2160.37 2056.28 1923.83 2035.84 1747.46C2087.56 1911 2249.85 2092.45 2402.5 2093Z" fill="black" fill-opacity="0.1"/>
<path d="M1970.99 1718.81C1970.21 1809.43 1919.63 1920.89 1846.51 2009.62C1773.47 2098.26 1676.72 2165.66 1582.51 2166C1488.57 2166.34 1422.36 2120.06 1380.04 2054.22C1337.84 1988.57 1319.31 1903.48 1320 1825.33C1320.61 1755.24 1335.75 1702.58 1360.48 1663.12C1385.24 1623.64 1419.38 1597.73 1457.37 1580.8C1531.12 1547.92 1619.88 1548.73 1683.73 1549.31C1685.39 1549.32 1687.03 1549.34 1688.66 1549.35L1688.62 1554.35L1688.66 1549.35C1795.24 1550.28 1865.92 1572.39 1910 1604.55C1954.25 1636.84 1971.34 1679.01 1970.99 1718.81ZM1970.99 1718.81L1965.99 1718.77L1970.99 1718.81Z" fill="#92FF92" stroke="#333333" stroke-width="10" stroke-miterlimit="10"/>
<path d="M1597.49 2093C1401.7 2093.7 1323.85 1878.31 1342.64 1712.17C1331.73 1743.38 1325.39 1780.71 1324.99 1825.37C1323.63 1980.26 1398.51 2161.66 1582.49 2161C1756.82 2160.37 1943.71 1923.83 1964.16 1747.46C1912.44 1911 1750.15 2092.45 1597.49 2093Z" fill="black" fill-opacity="0.1"/>
</svg>
